X: 1
T: the Blackthorn Stick
T: the Coach Road to Sligo
%: Fire on the Mountains
%: the Humors of Bantry
R: jig
Z: 1998 by John Chambers <jc:trillian.mit.edu>
M: 6/8
L: 1/8
K: G
   d \
| "G"gfg "C"ege | "G"dBG "C"AGE | "G"DGG "D7"FGA | "G"BGB "D2"A2d \
| "G"gfg "C"age | "G"dBG "C"AGE | "G"DGG "D7"FGA | "G"BGG G2 :|
|: d \
| "G"edd gdd | edd gdd | ede "C"gfg | "G"edB "D2"A2d \
| "G"gfg "C"age | "G"dBG "C"AGE | "G"DGG "D7"FGA | "G"BGG G2 :|
